X: 16656
T: Hans Thamsen
R: polka
M: 2/4
K: Dmajor
f|:"D"f2de/f/|"G"gf ee/e/|"A"ce ee|"D"Tf2de/f/|"G"gg/e/ "A"cA/c/|"D"d2d f:|
|:"D"a2aa|ba gf|"Em"g2e2|"A"aa/a/ fe|"D"Tf2 de/f/|"Em"gf ee/e/|
"A"ce ee|"D"f2 de/f/|O"G"gg/e/ "A"cA/c/|1 "D"d2 da:|2 "D"d3||
M:3/4
"^Coda""A"gg/e/ a2 c2|"D"dd d6||

